X: 35614
T: Sadhbh Ni Bhruinneallaigh
R: jig
M: 6/8
K: Cmajor
G|:c2c cAG|cde egg|age edc|dcc AGG|
ccc cAG|cde egg|age edc|dcc Acc:|
|:cAc egg|agg egg|age edc|dcc AGG|
c2c cAG|cde egg|age edc|dcc Acc:|

